X:5732
T:Gan Ainm
R:Reel
S:?
H:
N:
D:Probably from a Milltown session
Z:Adrian Scahill
M:4/4
L:1/8
K:G
A,B,CD E2DC|B,GDB, G,A,B,G,|A,B,CD EGAc|BAGA BcA2|\
A,B,CD E2DC|B,GG2 DGB,G|A,B,CD EGAc|BAGA BcA2:||\
^gaed ^cBAF|GEDC B,A,G,2|^gaed ^cBAF|GABd ^c2A2|\
^gaed ^cBAF|GEDC B,A,G,2|A,B,CD EGAc|BAGB A4:||


